dist/assets/img/sofa-icon-09.svg

<svg width="155" height="49" fill="none" xmlns="http://www.w3.org/2000/svg"><path fill-rule="evenodd" clip-rule="evenodd" d="M3 49h6v-1H3v1Zm143 0h6v-1h-6v1Zm-25-38h-1v2h-2v1h2v2h1v-2h2v-1h-2v-2Zm30 7h-7V5c0-2.8-2.2-5-5-5H16c-2.8 0-5 2.2-5 5v13H4c-2.2 0-4 1.8-4 4v25h12v-2h131v2h12V22c0-2.2-1.8-4-4-4ZM11 23H1v1h10v22H1V22c0-1.7 1.3-3 3-3h7v4Zm132 21H12v-7h131v7Zm0-8H12v-9h131v9Zm0-18v8H12V5c0-2.2 1.8-4 4-4h39v20h1V1h42v20h1V1h40c2.2 0 4 1.8 4 4v13Zm11 28h-10V24h10v22Zm0-23h-10v-4h7c1.7 0 3 1.3 3 3v1ZM78 11h-1v2h-2v1h2v2h1v-2h2v-1h-2v-2Zm-42 0h-1v2h-2v1h2v2h1v-2h2v-1h-2v-2Z" fill="#383838"/></svg>

<svg width="155" height="49" viewBox="0 0 155 49" fill="none" xmlns="http://www.w3.org/2000/svg">
<path fill-rule="evenodd" clip-rule="evenodd" d="M3 49H9V48H3V49ZM146 49H152V48H146V49ZM121 11H120V13H118V14H120V16H121V14H123V13H121V11ZM151 18H144V5C144 2.2 141.8 0 139 0H16C13.2 0 11 2.2 11 5V18H4C1.8 18 0 19.8 0 22V47H12V45H143V47H155V22C155 19.8 153.2 18 151 18ZM11 23H1V24H11V46H1V22C1 20.3 2.3 19 4 19H11V23ZM143 44H12V37H143V44ZM143 36H12V27H143V36ZM143 18V26H12V5C12 2.8 13.8 1 16 1H55V21H56V1H98V21H99V1H139C141.2 1 143 2.8 143 5V18ZM154 46H144V24H154V46ZM154 23H144V19H151C152.7 19 154 20.3 154 22V23ZM78 11H77V13H75V14H77V16H78V14H80V13H78V11ZM36 11H35V13H33V14H35V16H36V14H38V13H36V11Z" fill="#383838"/>
</svg>
